static/images/icons/data_analysis.svg

<svg fill="none" height="80" viewBox="0 0 92 80" width="92" xmlns="http://www.w3.org/2000/svg"><g fill="currentColor"><path d="m1.18306 74.2173h11.69074c.5608 0 1.0146-.4532 1.0146-1.011v-37.755c0-.5589-.4549-1.011-1.0146-1.011h-11.69074c-.560884 0-1.014603.4533-1.014603 1.011v37.755c0 .5578.454859 1.011 1.014603 1.011zm1.01574-37.7549h9.6615v35.7317h-9.6615z"/><path d="m32.3598 44.2576h-11.6907c-.5608 0-1.0146.4533-1.0146 1.0111v27.9365c0 .5589.4549 1.011 1.0146 1.011h11.6907c.5609 0 1.0146-.4533 1.0146-1.011v-27.9365c.0012-.5578-.4537-1.0111-1.0146-1.0111zm-1.0146 27.9365h-9.6615v-25.9144h9.6615z"/><path d="m40.154 24.2266c-.5609 0-1.0146.4532-1.0146 1.011v47.9687c0 .559.4549 1.0111 1.0146 1.0111h11.6907c.5609 0 1.0146-.4533 1.0146-1.0111v-47.9687c0-.5589-.4548-1.011-1.0146-1.011zm10.6761 47.9675h-9.6615v-45.9455h9.6615z"/><path d="m71.3307 30.4564h-11.6919c-.5608 0-1.0145.4532-1.0145 1.011v41.7378c0 .5589.4548 1.011 1.0145 1.011h11.6919c.5609 0 1.0146-.4532 1.0146-1.011v-41.7378c.0011-.5578-.4537-1.011-1.0146-1.011zm-1.0146 41.7377h-9.6615v-39.7145h9.6615z"/><path d="m90.8166 16.529h-11.6907c-.5608 0-1.0146.4533-1.0146 1.011v55.6652c0 .5589.4549 1.011 1.0146 1.011h11.6907c.5609 0 1.0146-.4532 1.0146-1.011v-55.6652c0-.5577-.4537-1.011-1.0146-1.011zm-1.0157 55.6651h-9.6615v-53.6419h9.6615z"/><path d="m90.8168 77.405h-89.63252c-.560883 0-1.014602.4532-1.014602 1.011s.454859 1.011 1.014602 1.011h89.63252c.5608 0 1.0146-.4532 1.0146-1.011s-.4538-1.011-1.0146-1.011z"/><path d="m6.9293 30.7892c2.24922 0 4.2442-1.1008 5.4743-2.79l7.7041 3.9578c-.2291.6771-.3557 1.3996-.3557 2.1528 0 3.7158 3.0336 6.7376 6.7614 6.7376 3.7289 0 6.7613-3.0229 6.7613-6.7376 0-1.5052-.4982-2.8968-1.3384-4.0204l10.0822-10.1478c1.1172.8133 2.4932 1.2961 3.9809 1.2961 2.6482 0 4.943-1.5256 6.0522-3.7397l6.758 2.1641c-.0559.3499-.0867.7077-.0867 1.0724 0 3.7147 3.0335 6.7376 6.7625 6.7376 3.7278 0 6.7613-3.0229 6.7613-6.7376 0-1.0928-.2644-2.1243-.7284-3.0377l8.599-6.1037c1.2301 1.2655 2.9503 2.0539 4.853 2.0539 3.7289 0 6.7613-3.0229 6.7613-6.73763 0-3.71472-3.0335-6.737617-6.7613-6.737617s-6.7614 3.022897-6.7614 6.737617c0 1.09283.2645 2.12431.7296 3.03766l-8.599 6.10377c-1.23-1.2655-2.9503-2.0539-4.8541-2.0539-2.6482 0-4.9442 1.5256-6.0534 3.7397l-6.7568-2.1641c.0559-.3499.0867-.7077.0867-1.0735 0-3.7147-3.0336-6.73763-6.7614-6.73763-3.7289 0-6.7613 3.02293-6.7613 6.73763 0 1.5052.4982 2.8968 1.3383 4.0192l-10.0821 10.1479c-1.1172-.8134-2.4932-1.2951-3.9798-1.2951-2.2492 0-4.243 1.1008-5.4731 2.7889l-7.7041-3.959c.2291-.6759.3557-1.3995.3557-2.1516 0-3.7147-3.0336-6.7376-6.76137-6.7376-3.72894 0-6.76134 3.0229-6.76134 6.7376-.00342 3.7182 3.03011 6.7399 6.75791 6.7399zm78.041-28.5931c2.6094 0 4.7321 2.11524 4.7321 4.71554s-2.1227 4.71556-4.7321 4.71556c-2.6095 0-4.7322-2.11526-4.7322-4.71556s2.1227-4.71554 4.7322-4.71554zm-23.9913 17.1025c0-.0011.0011-.0023.0011-.0023 0-.0011 0-.0011 0-.0011.6133-1.8971 2.3997-3.2728 4.5053-3.2728 2.6094 0 4.7321 2.1152 4.7321 4.7155s-2.1227 4.7155-4.7321 4.7155c-2.6095 0-4.7322-2.1152-4.7322-4.7155 0-.5032.0799-.9849.2258-1.4393zm-14.9796-9.51288c2.6094 0 4.7321 2.11528 4.7321 4.71558s-2.1227 4.7155-4.7321 4.7155c-2.6095 0-4.7322-2.1152-4.7322-4.7155s2.1227-4.71558 4.7322-4.71558zm-19.4849 19.60968c2.6095 0 4.7321 2.1152 4.7321 4.7155s-2.1226 4.7155-4.7321 4.7155-4.7321-2.1152-4.7321-4.7155 2.1226-4.7155 4.7321-4.7155zm-19.5852-10.0593c2.60946 0 4.7321 2.1152 4.7321 4.7155s-2.12264 4.7155-4.7321 4.7155-4.73214-2.1152-4.73214-4.7155 2.12382-4.7155 4.73214-4.7155z"/></g></svg>

<svg width="92" height="80" viewBox="0 0 92 80" fill="none" xmlns="http://www.w3.org/2000/svg">
<path d="M1.18306 74.2173H12.8738C13.4346 74.2173 13.8884 73.7641 13.8884 73.2063V35.4513C13.8884 34.8924 13.4335 34.4403 12.8738 34.4403H1.18306C0.622176 34.4403 0.168457 34.8936 0.168457 35.4513V73.2063C0.168457 73.7641 0.623316 74.2173 1.18306 74.2173ZM2.1988 36.4624H11.8603V72.1941H2.1988V36.4624Z" fill="currentColor"/>
<path d="M32.3598 44.2576H20.6691C20.1083 44.2576 19.6545 44.7109 19.6545 45.2687V73.2052C19.6545 73.7641 20.1094 74.2162 20.6691 74.2162H32.3598C32.9207 74.2162 33.3744 73.7629 33.3744 73.2052V45.2687C33.3756 44.7109 32.9207 44.2576 32.3598 44.2576ZM31.3452 72.1941H21.6837V46.2797H31.3452V72.1941Z" fill="currentColor"/>
<path d="M40.154 24.2266C39.5931 24.2266 39.1394 24.6798 39.1394 25.2376V73.2063C39.1394 73.7653 39.5943 74.2174 40.154 74.2174H51.8447C52.4056 74.2174 52.8593 73.7641 52.8593 73.2063V25.2376C52.8593 24.6787 52.4045 24.2266 51.8447 24.2266H40.154ZM50.8301 72.1941H41.1686V26.2486H50.8301V72.1941Z" fill="currentColor"/>
<path d="M71.3307 30.4564H59.6388C59.078 30.4564 58.6243 30.9096 58.6243 31.4674V73.2052C58.6243 73.7641 59.0791 74.2162 59.6388 74.2162H71.3307C71.8916 74.2162 72.3453 73.763 72.3453 73.2052V31.4674C72.3464 30.9096 71.8916 30.4564 71.3307 30.4564ZM70.3161 72.1941H60.6546V32.4796H70.3161V72.1941Z" fill="currentColor"/>
<path d="M90.8166 16.529H79.1259C78.5651 16.529 78.1113 16.9823 78.1113 17.54V73.2052C78.1113 73.7641 78.5662 74.2162 79.1259 74.2162H90.8166C91.3775 74.2162 91.8312 73.763 91.8312 73.2052V17.54C91.8312 16.9823 91.3775 16.529 90.8166 16.529ZM89.8009 72.1941H80.1394V18.5522H89.8009V72.1941Z" fill="currentColor"/>
<path d="M90.8168 77.405H1.18428C0.623397 77.405 0.169678 77.8582 0.169678 78.416C0.169678 78.9738 0.624537 79.427 1.18428 79.427H90.8168C91.3776 79.427 91.8314 78.9738 91.8314 78.416C91.8314 77.8582 91.3776 77.405 90.8168 77.405Z" fill="currentColor"/>
<path d="M6.9293 30.7892C9.17852 30.7892 11.1735 29.6884 12.4036 27.9992L20.1077 31.957C19.8786 32.6341 19.752 33.3566 19.752 34.1098C19.752 37.8256 22.7856 40.8474 26.5134 40.8474C30.2423 40.8474 33.2747 37.8245 33.2747 34.1098C33.2747 32.6046 32.7765 31.213 31.9363 30.0894L42.0185 19.9416C43.1357 20.7549 44.5117 21.2377 45.9994 21.2377C48.6476 21.2377 50.9424 19.7121 52.0516 17.498L58.8096 19.6621C58.7537 20.012 58.7229 20.3698 58.7229 20.7345C58.7229 24.4492 61.7564 27.4721 65.4854 27.4721C69.2132 27.4721 72.2467 24.4492 72.2467 20.7345C72.2467 19.6417 71.9823 18.6102 71.5183 17.6968L80.1173 11.5931C81.3474 12.8586 83.0676 13.647 84.9703 13.647C88.6992 13.647 91.7316 10.6241 91.7316 6.90937C91.7316 3.19465 88.6981 0.171753 84.9703 0.171753C81.2425 0.171753 78.2089 3.19465 78.2089 6.90937C78.2089 8.0022 78.4734 9.03368 78.9385 9.94703L70.3395 16.0508C69.1095 14.7853 67.3892 13.9969 65.4854 13.9969C62.8372 13.9969 60.5412 15.5225 59.432 17.7366L52.6752 15.5725C52.7311 15.2226 52.7619 14.8648 52.7619 14.499C52.7619 10.7843 49.7283 7.76137 46.0005 7.76137C42.2716 7.76137 39.2392 10.7843 39.2392 14.499C39.2392 16.0042 39.7374 17.3958 40.5775 18.5182L30.4954 28.6661C29.3782 27.8527 28.0022 27.371 26.5156 27.371C24.2664 27.371 22.2726 28.4718 21.0425 30.1599L13.3384 26.2009C13.5675 25.525 13.6941 24.8014 13.6941 24.0493C13.6941 20.3346 10.6605 17.3117 6.93273 17.3117C3.20379 17.3117 0.17139 20.3346 0.17139 24.0493C0.16797 27.7675 3.2015 30.7892 6.9293 30.7892ZM84.9703 2.1961C87.5797 2.1961 89.7024 4.31134 89.7024 6.91164C89.7024 9.51194 87.5797 11.6272 84.9703 11.6272C82.3608 11.6272 80.2381 9.51194 80.2381 6.91164C80.2381 4.31134 82.3608 2.1961 84.9703 2.1961ZM60.979 19.2986C60.979 19.2975 60.9801 19.2963 60.9801 19.2963C60.9801 19.2952 60.9801 19.2952 60.9801 19.2952C61.5934 17.3981 63.3798 16.0224 65.4854 16.0224C68.0948 16.0224 70.2175 18.1376 70.2175 20.7379C70.2175 23.3382 68.0948 25.4534 65.4854 25.4534C62.8759 25.4534 60.7532 23.3382 60.7532 20.7379C60.7532 20.2347 60.8331 19.753 60.979 19.2986ZM45.9994 9.78572C48.6088 9.78572 50.7315 11.901 50.7315 14.5013C50.7315 17.1016 48.6088 19.2168 45.9994 19.2168C43.3899 19.2168 41.2672 17.1016 41.2672 14.5013C41.2672 11.901 43.3899 9.78572 45.9994 9.78572ZM26.5145 29.3954C29.124 29.3954 31.2466 31.5106 31.2466 34.1109C31.2466 36.7112 29.124 38.8264 26.5145 38.8264C23.905 38.8264 21.7824 36.7112 21.7824 34.1109C21.7824 31.5106 23.905 29.3954 26.5145 29.3954ZM6.9293 19.3361C9.53876 19.3361 11.6614 21.4513 11.6614 24.0516C11.6614 26.6519 9.53876 28.7671 6.9293 28.7671C4.31984 28.7671 2.19716 26.6519 2.19716 24.0516C2.19716 21.4513 4.32098 19.3361 6.9293 19.3361Z" fill="currentColor"/>
</svg>
